X: 20152
T: BURBANK'S MARCH
C:
%R: march
B: Elias Howe "The Musician's Companion" 1843 p.15 #2
S: http://imslp.org/wiki/The_Musician's_Companion_(Howe,_Elias)
Z: 2015 John Chambers <jc:trillian.mit.edu>
M: C|
L: 1/8
K: F
% - - - - - - - - - - - - - - - - - - - - - - - - -
FG |\
A3G F>GA>B | c2c>c c2B2 | A>FA>c f>cA>F | G2G>G G2B2 |\
A>GF>E F>GA>B | c2c>c c2B2 | (3(ABc) (3(dcB) A2G2 | F2F>F F2 :|
|: fg |\
a3g fefg | a2e>e e2a2 | fed^c defg | a2e>e e2f2 |\
c3d cBAF | Acde f3B | AfdB A2G2 | F2F>F F2 :|
% - - - - - - - - - - - - - - - - - - - - - - - - -

%%sep 1 1 500

